contributed-vectors/alexis_pie.svg

<?xml version="1.0" encoding="UTF-8" standalone="no"?>
<svg
   xmlns:dc="http://purl.org/dc/elements/1.1/"
   xmlns:cc="http://creativecommons.org/ns#"
   xmlns:rdf="http://www.w3.org/1999/02/22-rdf-syntax-ns#"
   xmlns:svg="http://www.w3.org/2000/svg"
   xmlns="http://www.w3.org/2000/svg"
   xmlns:sodipodi="http://sodipodi.sourceforge.net/DTD/sodipodi-0.dtd"
   xmlns:inkscape="http://www.inkscape.org/namespaces/inkscape"
   viewBox="0 0 192 192"
   version="1.1"
   id="svg16"
   sodipodi:docname="alexis_pie.svg"
   inkscape:version="0.92.4 (5da689c313, 2019-01-14)">
  <metadata
     id="metadata20">
    <rdf:RDF>
      <cc:Work
         rdf:about="">
        <dc:format>image/svg+xml</dc:format>
        <dc:type
           rdf:resource="http://purl.org/dc/dcmitype/StillImage" />
        <dc:title></dc:title>
      </cc:Work>
    </rdf:RDF>
  </metadata>
  <sodipodi:namedview
     pagecolor="#ffffff"
     bordercolor="#666666"
     borderopacity="1"
     objecttolerance="10"
     gridtolerance="10"
     guidetolerance="10"
     inkscape:pageopacity="0"
     inkscape:pageshadow="2"
     inkscape:window-width="1920"
     inkscape:window-height="1017"
     id="namedview18"
     showgrid="true"
     inkscape:zoom="3.4766083"
     inkscape:cx="75.455773"
     inkscape:cy="92.409679"
     inkscape:window-x="-8"
     inkscape:window-y="-8"
     inkscape:window-maximized="1"
     inkscape:current-layer="svg16"
     inkscape:snap-global="false">
    <inkscape:grid
       type="xygrid"
       id="grid827"
       spacingx="4"
       spacingy="4" />
  </sodipodi:namedview>
  <defs
     id="defs4">
    <style
       id="style2">.a{fill:none;stroke:#b1b5bd;stroke-linecap:round;stroke-linejoin:round;isolation:isolate;opacity:0.63;}</style>
  </defs>
  <circle
     class="a"
     cx="96"
     cy="96"
     r="88"
     id="circle8"
     style="fill:#9abeff;stroke:none;opacity:1" />
  <path
     style="fill:#56595b;stroke:none;stroke-width:1px;stroke-linecap:butt;stroke-linejoin:miter;stroke-opacity:1"
     d="m 50.542373,83.59322 c 0,0 -1.502,-2.615859 -1.118644,-7.322034 1.074919,-13.195976 9.021674,-35.550614 37.423729,-35.59322 20.767112,-0.03115 44.997652,12.202247 45.355932,42.711864 0.13232,11.267541 -2.9888,23.0596 -3.20489,36.14805 -0.27536,16.67863 7.15355,28.31806 7.15355,28.31806 l -12.82977,22.4814 -26.061055,6.0861 -30.549361,-25.50819 c 0,0 4.869837,-10.9017 4.837754,-20.25377 -0.05894,-17.18104 -15.860093,-26.71913 -21.007245,-47.06826 z"
     id="path831"
     inkscape:connector-curvature="0"
     sodipodi:nodetypes="cssssccccsc" />
  <path
     style="fill:#fcecdc;stroke:none;stroke-width:1px;stroke-linecap:butt;stroke-linejoin:miter;stroke-opacity:1"
     d="m 50.542373,83.59322 c 0,0 1.044099,8.207654 3.152542,14.237288 1.25741,3.595882 -0.184494,6.247222 -2.127321,10.770812 -0.879278,2.04727 5.312555,4.58624 5.312555,4.58624 0,0 -0.0744,2.50516 0.503364,3.59545 1.167108,2.20243 2.876367,2.15728 2.876367,2.15728 0,0 0.04332,2.45562 0.791001,3.30782 0.575424,0.65587 2.444911,0.93482 2.444911,0.93482 0,0 0.303829,2.54283 1.480307,4.95301 1.007917,2.06485 5.094084,2.87621 8.505722,1.76283 3.801601,-1.24065 8.710354,-4.77429 8.710354,-4.77429 0,0 -5.241812,-7.23168 -4.249142,-15.93441 -2.840958,-1.47826 -5.995594,-5.30176 -5.995594,-5.30176 0,0 -6.994377,-0.71565 -12.198984,-4.894978 C 52.360134,93.060468 50.542373,83.59322 50.542373,83.59322 Z"
     id="path829"
     inkscape:connector-curvature="0"
     sodipodi:nodetypes="csscscscsscccsc" />
  <path
     style="fill:#fcecdc;stroke:none;stroke-width:1px;stroke-linecap:butt;stroke-linejoin:miter;stroke-opacity:1"
     d="M 109.58984 128.86328 L 99.666016 138.21289 C 99.666016 138.21289 90.937926 146.17743 97.078125 157.33984 C 100.0555 162.75248 110.73638 165.49402 115.19922 161.22266 C 117.90371 158.63421 117.3461 152.38901 113.32812 150.14844 C 110.6403 148.64962 106.32644 150.50772 104.55664 153.02539 C 103.59133 154.39862 104.69922 158.05859 104.69922 158.05859 C 104.69922 158.05859 102.36011 153.61223 103.40625 151.73047 C 106.59203 145.99999 112.46402 146.34667 116.15625 148.43359 C 120.94809 151.14203 121.56642 159.39979 117.93164 163.38086 C 111.45111 170.4788 95.523214 168.57752 89.167969 161.36719 C 80.904068 151.99139 82.263672 142.66992 82.263672 142.66992 C 82.263672 142.66992 79.231841 144.32864 72.916016 144.10938 C 66.902523 143.9006 61.206457 139.84542 55.226562 140.51367 C 46.046196 141.53958 42.458099 154.63026 41.046875 164.62695 A 88 88 0 0 0 96 184 A 88 88 0 0 0 154.78516 161.3457 C 152.77234 152.38028 148.53971 140.99458 139.93555 140.80078 C 132.50324 140.63337 130.04442 143.20168 123.53906 142.95703 C 114.34063 142.6111 109.58984 128.86328 109.58984 128.86328 z "
     id="path833" />
</svg>

<svg xmlns="http://www.w3.org/2000/svg" viewBox="0 0 192 192"><circle cx="96" cy="96" r="88" style="fill:#9abeff;stroke:none;opacity:1;stroke-linecap:round;stroke-linejoin:round;isolation:isolate"/><path d="M50.542 83.593s-1.502-2.616-1.118-7.322c1.075-13.196 9.021-35.55 37.423-35.593 20.768-.031 44.998 12.202 45.356 42.712.133 11.267-2.988 23.06-3.205 36.148-.275 16.679 7.154 28.318 7.154 28.318l-12.83 22.481-26.06 6.086-30.55-25.508s4.87-10.901 4.838-20.254c-.06-17.18-15.86-26.719-21.008-47.068z" style="fill:#56595b;stroke:none;stroke-width:1px;stroke-linecap:butt;stroke-linejoin:miter;stroke-opacity:1"/><path d="M50.542 83.593s1.044 8.208 3.153 14.238c1.257 3.595-.185 6.247-2.127 10.77-.88 2.048 5.312 4.587 5.312 4.587s-.074 2.505.504 3.595c1.167 2.202 2.876 2.157 2.876 2.157s.043 2.456.79 3.308c.576.656 2.446.935 2.446.935s.304 2.543 1.48 4.953c1.008 2.065 5.094 2.876 8.506 1.763 3.801-1.24 8.71-4.775 8.71-4.775s-5.242-7.231-4.249-15.934c-2.84-1.478-5.996-5.302-5.996-5.302s-6.994-.715-12.199-4.895c-7.388-5.933-9.206-15.4-9.206-15.4ZM109.59 128.863l-9.924 9.35s-8.728 7.964-2.588 19.127c2.977 5.412 13.658 8.154 18.121 3.883 2.705-2.589 2.147-8.834-1.87-11.075-2.689-1.498-7.003.36-8.772 2.877-.966 1.374.142 5.034.142 5.034s-2.339-4.447-1.293-6.329c3.186-5.73 9.058-5.383 12.75-3.296 4.792 2.708 5.41 10.966 1.776 14.947-6.48 7.098-22.409 5.197-28.764-2.014-8.264-9.376-6.904-18.697-6.904-18.697s-3.032 1.659-9.348 1.44c-6.013-.21-11.71-4.265-17.69-3.596-9.18 1.026-12.768 14.116-14.18 24.113A88 88 0 0 0 96 184a88 88 0 0 0 58.785-22.654c-2.013-8.966-6.245-20.351-14.85-20.545-7.432-.168-9.89 2.4-16.396 2.156-9.198-.346-13.95-14.094-13.95-14.094z" style="fill:#fcecdc;stroke:none;stroke-width:1px;stroke-linecap:butt;stroke-linejoin:miter;stroke-opacity:1"/></svg>
